X:1
T:Almaden, 85.85 D
T:Almaden, 85.85 D
T:S. H. Price, 1874
T:Public Domain Courtesy of the Cyber Hymnal™
C:S. H. Price, 1874
Z:Public Domain
Z:Courtesy of the Cyber Hymnal™
%%score ( 1 2 ) ( 3 4 )
L:1/8
Q:1/4=110
M:4/4
K:Ab
V:1 treble 
V:2 treble 
V:3 bass 
V:4 bass 
V:1
 [Ec]3 [Ec] [DB]2 [CA]2 | [=EG]2 [FA]2 F2 [FA]2 | [CE]2 [CA]2 [Ed]2 [Ec]2 | [EB]6 z2 | %4
 [Ec]3 [Ec] [DB]2 [CA]2 | [=EG]2 [FA]2 F2 [FA]2 | [CE]2 [CA]2 [Ec]2 [DB]2 | [CA]6 z2 | %8
 [Ac]3 [Ac] [Ae]2 [Gd]2 | [Ac]2 [GB]2 [FA]2 [=DA]2 | [EB]3 [=DA] [EG]2 [DF]2 | E6 z2 | %12
 [Ec]3 [Ec] [DB]2 [CA]2 | [=EG]2 [FA]2 F2 [FA]2 | [CE]2 [CA]2 [Ec]2 [DB]2 | [CA]8 |] %16
V:2
 x8 | x4 F2 x2 | x8 | x8 | x8 | x4 F2 x2 | x8 | x8 | x8 | x8 | x8 | E6 x2 | x8 | x4 F2 x2 | x8 | %15
 x8 |] %16
V:3
 A,3 A, [=E,G,]2 F,2 | [C,C]2 [F,C]2 [D,D]2 [=D,B,]2 | [E,A,]2 [E,A,]2 [G,B,]2 A,2 | [E,G,]6 z2 | %4
 A,3 A, [=E,G,]2 F,2 | [C,C]2 [F,C]2 [D,D]2 [=D,B,]2 | [E,A,]2 [E,A,]2 [E,A,]2 [G,,E,]2 | %7
 [A,,E,]6 z2 | [A,E]3 [A,E] [CE]2 [B,E]2 | [A,E]2 [=E,D]2 [F,C]2 [F,B,]2 | %10
 [G,B,]3 [F,B,] [E,B,]2 [B,,A,]2 | [E,G,]6 z2 | A,3 A, [=E,G,]2 F,2 | %13
 [C,C]2 [F,C]2 [D,D]2 [=D,B,]2 | [E,A,]2 [E,A,]2 [E,A,]2 [G,,E,]2 | [A,,E,]8 |] %16
V:4
 A,3 A, x F,2 x | x8 | x6 A,2 | x8 | A,3 A, x F,2 x | x8 | x8 | x8 | x8 | x8 | x8 | x8 | %12
 A,3 A, x F,2 x | x8 | x8 | x8 |] %16

